;FLAVOR:Marlin
;TIME:3260
;Filament used: 6.47989m
;Layer height: 0.2
;MINX:54.249
;MINY:59.749
;MINZ:0.3
;MAXX:130.75
;MAXY:120.25
;MAXZ:31.1
;Generated with Cura_SteamEngine 5.2.1
M82 ;absolute extrusion mode
M140 S45.0 ; start heating the bed to what is set in Cura
M104 S200 ; start heating T0 to what is set in Cura
M190 S45.0 ; start heating the bed to what is set in Cura
M109 S200 ; start heating T0 to what is set in Cura

G28 ;Home
G29 ;bedleveling
G1 Z15.0 F6000 ;Move the platform down 15mm
;Prime the extruder
G92 E0
G1 F200 E3
G92 E0
G92 E0
G92 E0
G1 F2100 E-5.5
;LAYER_COUNT:155
;LAYER:0
M107
G0 F1837.5 X75.01 Y61.148 Z0.3
;TYPE:SKIRT
G1 F2100 E0
G1 X75.37 Y60.751 E0.02674
G1 X75.784 Y60.411 E0.05346
G1 X76.245 Y60.137 E0.08022
G1 X76.742 Y59.934 E0.107
G1 X77.263 Y59.807 E0.13376
G1 X77.867 Y59.749 E0.16403
G1 X112.996 Y59.75 E1.91662
G1 X113.697 Y59.76 E1.9516
G1 X114.232 Y59.808 E1.9784
G1 X114.753 Y59.934 E2.00514
G1 X115.249 Y60.137 E2.03188
G1 X115.71 Y60.411 E2.05863
G1 X116.278 Y60.904 E2.09616
G1 X118.098 Y62.854 E2.22923
G1 X120.013 Y64.796 E2.3653
G1 X121.982 Y66.681 E2.50129
G1 X124.021 Y68.526 E2.63848
G1 X126.08 Y70.287 E2.77365
G1 X126.44 Y70.586 E2.797
G1 X126.826 Y70.958 E2.82375
G1 X127.152 Y71.384 E2.85051
G1 X127.412 Y71.853 E2.87726
G1 X127.626 Y72.429 E2.90792
G1 X127.973 Y74.179 E2.99693
G1 X128.565 Y76.916 E3.13663
G1 X129.199 Y79.498 E3.26928
G1 X129.938 Y82.169 E3.40754
G1 X130.459 Y83.871 E3.49634
G1 X130.599 Y84.356 E3.52153
G1 X130.709 Y84.88 E3.54824
G1 X130.75 Y85.698 E3.5891
G1 X130.75 Y115.959 E5.09883
G1 X130.741 Y116.686 E5.1351
G1 X130.694 Y117.22 E5.16184
G1 X130.569 Y117.741 E5.18857
G1 X130.367 Y118.238 E5.21534
G1 X130.094 Y118.7 E5.24211
G1 X129.756 Y119.116 E5.26885
G1 X129.359 Y119.477 E5.29562
G1 X128.913 Y119.775 E5.32239
G1 X128.428 Y120.003 E5.34912
G1 X127.914 Y120.157 E5.37589
G1 X127.169 Y120.249 E5.41334
G1 X83.506 Y120.25 E7.5917
G1 X82.805 Y120.24 E7.62668
G1 X82.27 Y120.192 E7.65347
G1 X81.749 Y120.066 E7.68022
G1 X81.253 Y119.863 E7.70695
G1 X80.792 Y119.589 E7.73371
G1 X80.259 Y119.155 E7.768
G1 X79.736 Y118.506 E7.80958
G1 X78.573 Y117.024 E7.90357
G1 X76.813 Y114.909 E8.04084
G1 X75.146 Y113.009 E8.16695
G1 X74.838 Y112.604 E8.19233
G1 X73.131 Y109.992 E8.34801
G1 X71.599 Y107.793 E8.48171
G1 X69.979 Y105.603 E8.61762
G1 X68.281 Y103.437 E8.75493
G1 X66.537 Y101.339 E8.89104
G1 X64.739 Y99.298 E9.02674
G1 X62.88 Y97.302 E9.16282
G1 X60.978 Y95.37 E9.29808
G1 X59.001 Y93.476 E9.43467
G1 X56.988 Y91.653 E9.57016
G1 X56.21 Y90.989 E9.62119
G1 X55.483 Y90.349 E9.66951
G1 X55.107 Y89.966 E9.69629
G1 X54.793 Y89.532 E9.72302
G1 X54.547 Y89.055 E9.74979
G1 X54.375 Y88.547 E9.77655
G1 X54.25 Y87.671 E9.8207
G1 X54.249 Y83.937 E10.00699
G1 X54.259 Y83.299 E10.03882
G1 X54.308 Y82.764 E10.06562
G1 X54.435 Y82.243 E10.09238
G1 X54.638 Y81.747 E10.11911
G1 X54.913 Y81.286 E10.14589
G1 X55.253 Y80.872 E10.17262
G1 X55.675 Y80.493 E10.20092
G1 X56.285 Y80.027 E10.23922
G1 X58.447 Y78.329 E10.37637
G1 X60.549 Y76.581 E10.51276
G1 X62.593 Y74.781 E10.64864
G1 X64.588 Y72.921 E10.78472
G1 X66.524 Y71.01 E10.92044
G1 X68.41 Y69.041 E11.05646
G1 X70.237 Y67.022 E11.19231
G1 X72.017 Y64.939 E11.32901
G1 X73.733 Y62.813 E11.46531
G1 X74.558 Y61.729 E11.53328
G1 X75.01 Y61.148 E11.57
G0 F1837.5 X75.325 Y61.394
G1 F2100 X75.666 Y61.021 E11.59521
G1 X76.062 Y60.706 E11.62046
G1 X76.502 Y60.457 E11.64568
G1 X76.976 Y60.281 E11.67091
G1 X77.472 Y60.182 E11.69614
G1 X78.085 Y60.15 E11.72677
G1 X112.991 Y60.15 E13.46823
G1 X113.692 Y60.16 E13.50321
G1 X114.195 Y60.207 E13.52841
G1 X114.685 Y60.333 E13.55366
G1 X115.148 Y60.535 E13.57886
G1 X115.575 Y60.807 E13.60412
G1 X115.986 Y61.177 E13.63171
G1 X117.821 Y63.144 E13.76591
G1 X119.735 Y65.083 E13.90184
G1 X121.701 Y66.966 E14.03766
G1 X123.741 Y68.812 E14.17491
G1 X125.825 Y70.594 E14.31171
G1 X126.185 Y70.893 E14.33506
G1 X126.547 Y71.246 E14.36029
G1 X126.849 Y71.651 E14.38549
G1 X127.083 Y72.099 E14.41071
G1 X127.279 Y72.733 E14.44381
G1 X127.582 Y74.264 E14.52168
G1 X128.17 Y76.983 E14.66047
G1 X128.821 Y79.635 E14.7967
G1 X129.555 Y82.288 E14.93403
G1 X130.074 Y83.982 E15.02242
G1 X130.214 Y84.467 E15.04761
G1 X130.316 Y84.962 E15.07282
G1 X130.349 Y85.605 E15.10495
G1 X130.35 Y115.954 E16.61906
G1 X130.341 Y116.681 E16.65534
G1 X130.295 Y117.184 E16.68054
G1 X130.17 Y117.674 E16.70577
G1 X129.969 Y118.138 E16.73099
G1 X129.698 Y118.565 E16.75622
G1 X129.363 Y118.944 E16.78146
G1 X128.973 Y119.265 E16.80666
G1 X128.537 Y119.521 E16.83189
G1 X128.066 Y119.704 E16.85709
G1 X127.572 Y119.812 E16.88232
G1 X126.91 Y119.849 E16.9154
G1 X83.511 Y119.85 E19.08059
G1 X82.81 Y119.84 E19.11556
G1 X82.307 Y119.793 E19.14077
G1 X81.817 Y119.667 E19.16601
G1 X81.354 Y119.465 E19.19121
G1 X80.927 Y119.193 E19.21647
G1 X80.494 Y118.809 E19.24534
G1 X80.051 Y118.26 E19.28054
G1 X78.882 Y116.771 E19.37498
G1 X77.117 Y114.65 E19.51265
G1 X75.447 Y112.746 E19.639
G1 X75.173 Y112.385 E19.66161
G1 X73.477 Y109.789 E19.81631
G1 X71.921 Y107.556 E19.9521
G1 X70.282 Y105.341 E20.08957
G1 X68.588 Y103.18 E20.22656
G1 X66.845 Y101.082 E20.36264
G1 X65.051 Y99.046 E20.49802
G1 X63.174 Y97.031 E20.63541
G1 X61.257 Y95.084 E20.77172
G1 X59.263 Y93.174 E20.90948
G1 X57.232 Y91.334 E21.04621
G1 X56.435 Y90.654 E21.09847
G1 X55.747 Y90.049 E21.14418
G1 X55.395 Y89.686 E21.16941
G1 X55.104 Y89.273 E21.19461
G1 X54.882 Y88.818 E21.21987
G1 X54.735 Y88.335 E21.24506
G1 X54.651 Y87.663 E21.27885
G1 X54.649 Y83.943 E21.46444
G1 X54.659 Y83.305 E21.49627
G1 X54.707 Y82.802 E21.52148
G1 X54.834 Y82.312 E21.54674
G1 X55.036 Y81.849 E21.57194
G1 X55.308 Y81.423 E21.59715
G1 X55.713 Y80.968 E21.62754
G1 X56.547 Y80.331 E21.6799
G1 X58.705 Y78.636 E21.8168
G1 X60.806 Y76.888 E21.95316
G1 X62.846 Y75.091 E22.08879
G1 X64.876 Y73.199 E22.22723
G1 X66.812 Y71.289 E22.36291
G1 X68.695 Y69.322 E22.49877
G1 X70.538 Y67.285 E22.63581
G1 X72.334 Y65.184 E22.77371
G1 X74.03 Y63.082 E22.90846
G1 X75.325 Y61.394 E23.0146
G1 F2100 E17.5146
;MESH:XY_Motor_left.stl
G0 F1837.5 X88.731 Y77.362
G0 X89.329 Y77.237
;TYPE:WALL-INNER
G1 F2100 E23.0146
G1 X89.84 Y77.073 E23.04138
G1 X90.414 Y76.997 E23.07026
G1 X91.211 Y77.076 E23.11022
G1 X91.784 Y77.286 E23.14067
G1 X92.322 Y77.607 E23.17192
G1 X92.916 Y78.201 E23.21383
G1 X93.253 Y78.809 E23.24852
G1 X93.404 Y79.24 E23.2713
G1 X93.505 Y79.897 E23.30446
G1 X93.418 Y80.731 E23.3463
G1 X93.202 Y81.308 E23.37703
G1 X92.896 Y81.818 E23.40671
G1 X92.297 Y82.416 E23.44893
G1 X91.679 Y82.763 E23.48429
G1 X91.218 Y82.915 E23.50851
G1 X90.623 Y83.005 E23.53853
G1 X89.801 Y82.925 E23.57974
G1 X89.212 Y82.712 E23.61098
G1 X88.684 Y82.399 E23.64161
G1 X88.079 Y81.791 E23.6844
G1 X87.741 Y81.178 E23.71932
G1 X87.586 Y80.721 E23.7434
G1 X87.502 Y80.119 E23.77372
G1 X87.506 Y79.997 E23.77981
G1 X87.577 Y79.279 E23.81581
G1 X87.834 Y78.627 E23.85077
G1 X88.122 Y78.163 E23.87802
G1 X88.7 Y77.585 E23.9188
G1 X89.329 Y77.237 E23.95466
G1 F2100 E18.45466
G0 F1837.5 X90.382 Y77.157
G0 X91.17 Y77.233
G0 X92.944 Y77.974
G0 X107.491 Y71.212
G0 X107.823 Y74.177
G0 X108.369 Y74.309
G1 F2100 E23.95466
G1 X108.1 Y74.185 E23.96944
G1 X107.92 Y74.033 E23.9812
G1 X107.772 Y73.828 E23.99381
G1 X107.652 Y73.411 E24.01546
G1 X107.651 Y65.651 E24.40261
G1 X107.728 Y65.265 E24.42224
G1 X108.051 Y64.85 E24.44848
G1 F2228.1 X108.505 Y64.676 E24.47134
G1 F2386.4 X112.675 Y64.675 E24.65442
G1 F2400 X112.675 Y64.325 E24.6697
G1 X108.651 Y64.325 E24.84536
G1 F2240 X107.884 Y64.349 E24.88125
G1 F2100 X78.85 Y64.35 E26.32976
G1 X78.85 Y65.65 E26.39462
G1 X79.85 Y65.65 E26.44451
G1 X80.321 Y65.767 E26.46872
G1 X80.65 Y66.049 E26.49034
G1 X80.811 Y66.369 E26.50821
G1 X80.85 Y66.65 E26.52237
G1 X80.847 Y79.423 E27.15962
G1 X80.77 Y79.741 E27.17594
G1 X80.649 Y79.951 E27.18803
G1 X80.45 Y80.149 E27.20204
G1 X80.234 Y80.273 E27.21446
G1 X79.85 Y80.349 E27.23399
G1 X78.85 Y80.35 E27.28388
G1 X78.849 Y83.387 E27.4354
G1 X78.822 Y83.583 E27.44527
G1 X78.722 Y83.838 E27.45893
G1 X78.432 Y84.163 E27.48067
G1 X78.187 Y84.291 E27.49446
G1 X77.849 Y84.349 E27.51157
G1 X58.85 Y84.35 E28.45943
G1 X58.85 Y86.65 E28.57418
G1 X77.849 Y86.651 E29.52204
G1 X78.187 Y86.709 E29.53915
G1 X78.432 Y86.837 E29.55294
G1 X78.581 Y86.969 E29.56287
G1 X78.794 Y87.32 E29.58336
G1 X78.846 Y87.562 E29.5957
G1 X78.85 Y109.65 E30.69768
G1 X82.85 Y109.651 E30.89724
G1 X83.139 Y109.693 E30.91181
G1 X83.337 Y109.777 E30.92254
G1 X83.534 Y109.922 E30.93474
G1 X83.775 Y110.27 E30.95586
G1 X83.849 Y110.543 E30.96997
G1 X83.85 Y115.65 E31.22476
G1 X126.15 Y115.65 E33.33512
G1 X126.15 Y86.35 E34.7969
G1 X124.15 Y86.349 E34.89668
G1 X123.898 Y86.317 E34.90936
G1 X123.553 Y86.151 E34.92846
G1 X123.347 Y85.946 E34.94296
G1 X123.179 Y85.586 E34.96278
G1 X123.151 Y85.364 E34.97394
G1 X123.151 Y82.498 E35.11692
G1 X122.586 Y82.796 E35.14879
G1 X122.132 Y82.931 E35.17242
G1 X121.499 Y82.994 E35.20416
G1 X120.824 Y82.928 E35.238
G1 X120.232 Y82.726 E35.2692
G1 X119.694 Y82.407 E35.30041
G1 X119.097 Y81.81 E35.34253
G1 X118.739 Y81.184 E35.37851
G1 X118.584 Y80.716 E35.4031
G1 X118.495 Y80.122 E35.43307
G1 X118.571 Y79.331 E35.47271
G1 X118.749 Y78.806 E35.50037
G1 X119.087 Y78.198 E35.53508
G1 X119.602 Y77.683 E35.57141
G1 X119.819 Y77.519 E35.58498
G1 X120.414 Y77.204 E35.61857
G1 X120.84 Y77.073 E35.64081
G1 X121.403 Y77.002 E35.66912
G1 X122.221 Y77.077 E35.7101
G1 X122.87 Y77.333 E35.7449
G1 X123.151 Y77.501 E35.76124
G1 X123.15 Y74.35 E35.91844
G1 X108.562 Y74.35 E36.64624
G1 X108.369 Y74.309 E36.65608
G0 F1837.5 X123.232 Y74.268
G0 X123.459 Y78.54
G0 X123.751 Y79.055
G0 X123.794 Y79.46
;TYPE:WALL-OUTER
G1 F1215.6 X123.817 Y80.066 E36.70835
G1 F2100 E31.20835
G0 F1837.5 X123.735 Y80.905
G0 X122.971 Y82.806
G0 X119.456 Y108.575
G0 X118.582 Y110.274
;TYPE:WALL-INNER
G1 F2100 E36.70835
G1 X118.799 Y109.69 E36.73943
G1 X119.154 Y109.133 E36.77238
G1 X119.69 Y108.597 E36.8102
G1 X120.318 Y108.238 E36.84629
G1 X120.782 Y108.085 E36.87067
G1 X121.383 Y107.994 E36.90099
G1 X122.083 Y108.063 E36.93608
G1 X122.692 Y108.248 E36.96784
G1 X123.295 Y108.582 E37.00223
G1 X123.817 Y109.102 E37.03899
G1 X123.981 Y109.319 E37.05256
G1 X124.295 Y109.912 E37.08604
G1 X124.431 Y110.367 E37.10973
G1 X124.5 Y110.941 E37.13857
G1 X124.428 Y111.658 E37.17452
G1 X124.251 Y112.192 E37.20259
G1 X123.912 Y112.803 E37.23745
G1 X123.398 Y113.317 E37.27371
G1 X123.181 Y113.481 E37.28728
G1 X122.584 Y113.796 E37.32096
G1 X122.158 Y113.927 E37.3432
G1 X121.438 Y114 E37.3793
G1 X120.767 Y113.919 E37.41302
G1 X120.13 Y113.668 E37.44718
G1 X119.602 Y113.317 E37.47881
G1 X119.183 Y112.898 E37.50837
G1 X119.018 Y112.68 E37.52201
G1 X118.705 Y112.087 E37.55547
G1 X118.567 Y111.628 E37.57938
G1 X118.512 Y111.238 E37.59903
G1 X118.502 Y111.057 E37.60807
G1 X118.582 Y110.274 E37.64734
G1 F2100 E32.14734
G0 F1837.5 X110.812 Y107.178
G0 X106.903 Y107.757
G0 X105.097 Y107.757
G0 X103.308 Y107.492
G0 X101.859 Y107.071
G0 X100.207 Y106.339
G0 X98.923 Y105.548
G0 X97.525 Y104.401
G0 X95.387 Y102.023
G1 F2100 E37.64734
G1 X95.006 Y101.346 E37.6861
G1 X94.734 Y100.8 E37.71653
G1 X94.507 Y100.288 E37.74447
G1 X94.22 Y99.552 E37.78388
G1 X94.003 Y98.836 E37.82121
G1 X93.842 Y98.19 E37.85442
G1 X93.732 Y97.631 E37.88285
G1 X93.64 Y97.001 E37.91461
G1 X93.584 Y96.442 E37.94264
G1 X93.554 Y95.83 E37.97321
G1 X93.553 Y95.218 E38.00374
G1 X93.584 Y94.558 E38.03671
G1 X93.64 Y93.997 E38.06483
G1 X93.728 Y93.395 E38.09519
G1 X93.854 Y92.76 E38.12749
G1 X94.039 Y92.025 E38.1653
G1 X94.27 Y91.326 E38.20203
G1 X94.488 Y90.758 E38.23238
G1 X94.755 Y90.155 E38.26528
G1 X95.03 Y89.609 E38.29578
G1 X95.409 Y88.945 E38.33392
G1 X95.835 Y88.309 E38.37211
G1 X96.2 Y87.819 E38.4026
G1 X96.587 Y87.351 E38.4329
G1 X97.001 Y86.894 E38.46366
G1 X97.431 Y86.468 E38.49386
G1 X97.846 Y86.089 E38.5219
G1 X98.319 Y85.699 E38.55248
G1 X98.85 Y85.307 E38.58541
G1 X99.476 Y84.888 E38.62299
G1 X100.153 Y84.508 E38.66172
G1 X100.7 Y84.234 E38.69225
G1 X101.212 Y84.007 E38.72019
G1 X101.948 Y83.72 E38.7596
G1 X102.68 Y83.498 E38.79776
G1 X103.31 Y83.342 E38.83014
G1 X103.848 Y83.236 E38.8575
G1 X104.499 Y83.14 E38.89033
G1 X105.058 Y83.084 E38.91836
G1 X105.672 Y83.054 E38.94903
G1 X106.331 Y83.054 E38.9819
G1 X106.942 Y83.084 E39.01242
G1 X107.503 Y83.14 E39.04055
G1 X108.153 Y83.236 E39.07333
G1 X108.692 Y83.343 E39.10075
G1 X109.509 Y83.549 E39.14278
G1 X110.174 Y83.77 E39.17774
G1 X110.742 Y83.988 E39.2081
G1 X111.346 Y84.255 E39.24104
G1 X111.849 Y84.508 E39.26913
G1 X112.495 Y84.872 E39.30613
G1 X113.149 Y85.305 E39.34526
G1 X113.681 Y85.7 E39.37832
G1 X114.149 Y86.087 E39.40861
G1 X114.604 Y86.498 E39.4392
G1 X115.032 Y86.931 E39.46958
G1 X115.446 Y87.386 E39.50027
G1 X115.801 Y87.819 E39.5282
G1 X116.193 Y88.35 E39.56113
G1 X116.59 Y88.942 E39.59669
G1 X116.97 Y89.611 E39.63508
G1 X117.266 Y90.2 E39.66797
G1 X117.493 Y90.712 E39.69591
G1 X117.792 Y91.484 E39.73721
G1 X117.995 Y92.155 E39.77219
G1 X118.147 Y92.762 E39.8034
G1 X118.264 Y93.347 E39.83317
G1 X118.36 Y93.998 E39.866
G1 X118.416 Y94.557 E39.89403
G1 X118.448 Y95.219 E39.92709
G1 X118.448 Y95.782 E39.95518
G1 X118.416 Y96.442 E39.98815
G1 X118.36 Y97.003 E40.01627
G1 X118.268 Y97.631 E40.04794
G1 X118.146 Y98.24 E40.07893
G1 X117.951 Y99.009 E40.11851
G1 X117.729 Y99.674 E40.15348
G1 X117.512 Y100.242 E40.18382
G1 X117.245 Y100.845 E40.21672
G1 X116.97 Y101.391 E40.24722
G1 X116.591 Y102.055 E40.28536
G1 X116.165 Y102.691 E40.32355
G1 X115.8 Y103.181 E40.35404
G1 X115.413 Y103.649 E40.38433
G1 X115.002 Y104.104 E40.41492
G1 X114.569 Y104.532 E40.4453
G1 X114.114 Y104.946 E40.47599
G1 X113.681 Y105.301 E40.50392
G1 X113.15 Y105.693 E40.53685
G1 X112.524 Y106.112 E40.57443
G1 X111.857 Y106.487 E40.61261
G1 X111.3 Y106.766 E40.64369
G1 X110.788 Y106.993 E40.67163
G1 X110.016 Y107.292 E40.71293
G1 X109.344 Y107.495 E40.74796
G1 X108.69 Y107.658 E40.78158
G1 X108.131 Y107.768 E40.81001
G1 X107.501 Y107.86 E40.84177
G1 X106.942 Y107.916 E40.8698
G1 X106.329 Y107.946 E40.90042
G1 X105.669 Y107.946 E40.93335
G1 X105.058 Y107.916 E40.96386
G1 X104.497 Y107.86 E40.99199
G1 X103.895 Y107.772 E41.02235
G1 X103.26 Y107.646 E41.05464
G1 X102.491 Y107.451 E41.09422
G1 X101.826 Y107.23 E41.12918
G1 X101.258 Y107.012 E41.15954
G1 X100.654 Y106.745 E41.19248
G1 X100.151 Y106.492 E41.22057
G1 X99.444 Y106.09 E41.26115
G1 X98.851 Y105.695 E41.2967
G1 X98.318 Y105.299 E41.32982
G1 X97.85 Y104.912 E41.36012
G1 X97.394 Y104.499 E41.39082
G1 X96.968 Y104.069 E41.42101
G1 X96.553 Y103.613 E41.45177
G1 X96.166 Y103.139 E41.4823
G1 X95.807 Y102.65 E41.51257
G1 X95.387 Y102.023 E41.55022
G1 F2100 E36.05022
G0 F1837.5 X95.548 Y102.587
G0 X92.136 Y108.282
G0 X93.119 Y109.892
G0 X93.26 Y110.319
G0 X93.343 Y110.882
G0 X93.267 Y111.67
G0 X93.072 Y112.216
G0 X92.773 Y112.712
G0 X92.205 Y113.281
G0 X91.608 Y113.619
G0 X91.181 Y113.76
G0 X90.726 Y113.826
G0 X89.308 Y113.752
G1 F2100 E41.55022
G1 X88.699 Y113.414 E41.58497
G1 X88.183 Y112.898 E41.62137
G1 X88.018 Y112.68 E41.63502
G1 X87.705 Y112.087 E41.66847
G1 X87.572 Y111.658 E41.69088
G1 X87.502 Y111.096 E41.71913
G1 X87.574 Y110.293 E41.75935
G1 X87.79 Y109.709 E41.79042
G1 X88.135 Y109.15 E41.82319
G1 X88.723 Y108.571 E41.86436
G1 X89.38 Y108.217 E41.90159
G1 X89.868 Y108.069 E41.92704
G1 X90.399 Y107.995 E41.95378
G1 X91.231 Y108.082 E41.99552
G1 X91.807 Y108.298 E42.02621
G1 X92.318 Y108.603 E42.0559
G1 X92.914 Y109.201 E42.09802
G1 X93.263 Y109.822 E42.13356
G1 X93.415 Y110.281 E42.15768
G1 X93.502 Y110.863 E42.18704
G1 X93.437 Y111.583 E42.22311
G1 X93.252 Y112.192 E42.25486
G1 X92.914 Y112.801 E42.28961
G1 X92.398 Y113.317 E42.32602
G1 X92.181 Y113.481 E42.33959
G1 X91.586 Y113.796 E42.37318
G1 X91.16 Y113.927 E42.39541
G1 X90.597 Y113.998 E42.42372
G1 X89.917 Y113.937 E42.45778
G1 X89.308 Y113.752 E42.48954
G0 F1837.5 X88.219 Y112.705
G0 X87.881 Y112.108
G0 X87.74 Y111.681
G0 X87.657 Y111.118
G0 X87.733 Y110.33
G0 X87.928 Y109.784
G0 X88.227 Y109.288
G0 X88.795 Y108.719
G0 X89.392 Y108.381
G0 X89.819 Y108.24
G0 X91.131 Y108.17
G0 X91.102 Y108.467
G1 F2100 X91.627 Y108.655 E42.51736
